public/twitter.svg

<svg width="18" height="14" viewBox="0 0 18 14" fill="none" xmlns="http://www.w3.org/2000/svg">
<path d="M17.0284 0.359155C16.3493 0.679988 15.1934 1.28165 14.6126 1.39665C14.5901 1.40249 14.5718 1.40999 14.5501 1.41582C13.8726 0.747488 12.9443 0.333322 11.9168 0.333322C9.84594 0.333322 8.16677 2.01249 8.16677 4.08332C8.16677 4.19249 8.15761 4.39332 8.16677 4.49999C5.48511 4.49999 3.52677 3.10082 2.06094 1.30249C1.86511 1.06082 1.65677 1.18665 1.61344 1.35832C1.51594 1.74665 1.48261 2.39582 1.48261 2.85915C1.48261 4.02665 2.39511 5.17332 3.81594 5.88415C3.55427 5.95165 3.26594 5.99999 2.96594 5.99999C2.61261 5.99999 2.20594 5.90749 1.85011 5.72082C1.71844 5.65165 1.43427 5.67082 1.51844 6.00749C1.85594 7.35665 3.39594 8.30415 4.77177 8.57999C4.45927 8.76416 3.79261 8.72666 3.48594 8.72666C3.37261 8.72666 2.97844 8.69999 2.72344 8.66832C2.49094 8.63999 2.13344 8.69999 2.43261 9.15332C3.07511 10.1258 4.52844 10.7367 5.77927 10.76C4.62761 11.6633 2.74427 11.9933 0.940108 11.9933C0.575108 11.985 0.593441 12.4008 0.887608 12.555C2.21844 13.2533 4.39844 13.6667 5.95594 13.6667C12.1476 13.6667 15.6668 8.94749 15.6668 4.49915C15.6668 4.42749 15.6651 4.27749 15.6626 4.12665C15.6626 4.11165 15.6668 4.09749 15.6668 4.08249C15.6668 4.05999 15.6601 4.03832 15.6601 4.01582C15.6576 3.90249 15.6551 3.79665 15.6526 3.74165C16.1434 3.38749 16.8951 2.77249 17.2751 2.30165C17.4043 2.14165 17.3001 1.94749 17.1243 2.00832C16.6718 2.16582 15.8893 2.47082 15.3993 2.52916C16.3801 1.87999 16.8651 1.31499 17.2818 0.687488C17.4243 0.473322 17.2459 0.255822 17.0284 0.359155Z" fill="white"/>
</svg>

<svg width="18" height="14" fill="none" xmlns="http://www.w3.org/2000/svg"><path d="M17.028.36c-.679.32-1.835.922-2.415 1.037-.023.005-.041.013-.063.019a3.75 3.75 0 0 0-6.383 2.667c0 .11-.01.31 0 .417-2.682 0-4.64-1.4-6.106-3.198-.196-.241-.404-.115-.448.056-.097.389-.13 1.038-.13 1.501 0 1.168.912 2.314 2.333 3.025-.262.068-.55.116-.85.116-.353 0-.76-.093-1.116-.28-.132-.068-.416-.05-.332.287.338 1.35 1.878 2.297 3.254 2.573-.313.184-.98.147-1.286.147-.113 0-.508-.027-.763-.059-.232-.028-.59.032-.29.485.642.973 2.095 1.584 3.346 1.607-1.151.903-3.035 1.233-4.839 1.233-.365-.008-.347.408-.052.562 1.33.698 3.51 1.112 5.068 1.112 6.192 0 9.71-4.72 9.71-9.168 0-.072 0-.222-.003-.372 0-.015.004-.03.004-.045 0-.022-.007-.044-.007-.066l-.007-.274c.49-.355 1.242-.97 1.622-1.44.13-.16.025-.355-.15-.294-.453.158-1.236.463-1.726.521.981-.649 1.466-1.214 1.883-1.842.142-.214-.036-.431-.254-.328z" fill="#fff"/></svg>
